select-remove.svg

<svg fill="currentColor" viewBox="0 0 24 24"><path d="M21 20c0 .55-.45 1-1 1h-1v-2h2zm-6 1v-2h2v2zm-4 0v-2h2v2zm-4 0v-2h2v2zm-3 0c-.55 0-1-.45-1-1v-1h2v2zm-1-6h2v2H3zm18 0v2h-2v-2zm-6.41-7L12 10.59 9.41 8 8 9.41 10.59 12 8 14.59 9.41 16 12 13.41 14.59 16 16 14.59 13.41 12 16 9.41zM3 11h2v2H3zm18 0v2h-2v-2zM3 7h2v2H3zm18 0v2h-2V7zM4 3h1v2H3V4c0-.55.45-1 1-1m16 0c.55 0 1 .45 1 1v1h-2V3zm-5 2V3h2v2zm-4 0V3h2v2zM7 5V3h2v2z"/></svg>

<svg  viewBox="0 0 24 24" fill="currentColor"><path  d="M21 20C21 20.55 20.55 21 20 21H19V19H21V20M15 21V19H17V21H15M11 21V19H13V21H11M7 21V19H9V21H7M4 21C3.45 21 3 20.55 3 20V19H5V21H4M3 15H5V17H3V15M21 15V17H19V15H21M14.59 8L12 10.59L9.41 8L8 9.41L10.59 12L8 14.59L9.41 16L12 13.41L14.59 16L16 14.59L13.41 12L16 9.41L14.59 8M3 11H5V13H3V11M21 11V13H19V11H21M3 7H5V9H3V7M21 7V9H19V7H21M4 3H5V5H3V4C3 3.45 3.45 3 4 3M20 3C20.55 3 21 3.45 21 4V5H19V3H20M15 5V3H17V5H15M11 5V3H13V5H11M7 5V3H9V5H7Z"/></svg>
